X:1
T:Title
%%score { 1 | ( 2 3 ) }
L:1/8
M:3/4
K:F
V:1 treble nm="Grand Piano"
V:2 bass 
V:3 bass 
V:1
 z2 z2[Q:1/4=94] A>G | F3 G A[_EFc] | [DFB]2 [CFA]2 [A,CF]>[A,CF] | [CEA]3 G DE | F4 A>G | %5
 F3 G A[_EFc] | [DFB]2 [CFA]2 [CGc]>[Gd] | [Ge]3 [Gc] [FA][Fd] |[M:2/4] [Ec]4 |[M:1/4] [_Ec]>[Ed] | %10
[M:3/4] [Dc]3 [DFB] [B,EG]>[CEA] | [B,EG]2 [A,F]2 [FA]>[FB] | [Fc][Fd] [FG]2 [Ec]2 | %13
 [Fc]4 [FA][Gc] | [Ff]3 [Ge] [DFd][Fd] | [Fd]2 [Fc]2 [B,FB][CFA] | [DFG].[B,DB] [A,CF]2 [B,EG]2 | %17
[M:2/4] [A,F]4 |] %18
V:2
 z2 z2 [F,CF]>[F,B,C] | [F,A,C]3 [F,B,C] [F,CF]A,, | B,,2 F,2 F,>F, | C,3 [C,B,C] [C,B,C][C,G,C] | %4
 [F,A,C]4 [F,CF]>[F,B,C] | [F,A,C]3 [F,B,C] [F,CF]A,, | B,,2 F,2 E,>[D,=B,] | %7
 [C,C]3 [E,C] [G,=B,][G,B,] |[M:2/4] [C,C]4 |[M:1/4] [F,A,]>[F,A,] |[M:3/4] [B,,B,]3 B,, C,>C, | %11
 C,2 D,2 [D,F,]>[D,G,] | [C,A,][C,B,] [C,C]2 [C,B,]2 | [F,A,]4 [F,C][E,C] | %14
 [D,A,]3 [A,,B,C] [B,,B,][D,B,] | [F,B,]2 [F,A,]2 D,C, | .B,,>G C,2 C,2 |[M:2/4] F,4 |] %18
V:3
 x6 | x6 | x6 | x6 | x6 | x6 | x6 | x6 |[M:2/4] x4 |[M:1/4] x2 |[M:3/4] x6 | x6 | x6 | x6 | x6 | %15
 x6 | z B,, z2 z2 |[M:2/4] x4 |] %18

